public/images/case-studies/speakinc/tech-icon4.svg

<svg width="155" height="57" viewBox="0 0 155 57" fill="none" xmlns="http://www.w3.org/2000/svg">
<path fill-rule="evenodd" clip-rule="evenodd" d="M34.4321 14.1784C35.1142 14.4864 35.4478 15.411 35.6825 16.6576L42.9825 56.0788L7.92366 35.3431L-0.364863 4.55854C-0.593199 3.66007 0.187929 3.08272 0.927084 3.31872L15.2695 8.05509C16.8909 8.57976 16.0733 5.77814 17.3022 6.1511L28.0848 9.41545C29.1526 9.80189 28.7228 12.1513 29.7974 12.6292L34.4321 14.1784Z" fill="#236BB3"/>
<path fill-rule="evenodd" clip-rule="evenodd" d="M53.0399 9.17064L16.1871 -0.372075C15.474 -0.53938 15.011 -0.184542 14.7529 0.645662L13.0332 7.31722L15.2683 8.05555C16.8897 8.58022 16.0721 5.7786 17.3011 6.15156L28.0837 9.4159C29.1515 9.80235 28.7217 12.1518 29.7962 12.6297L34.4309 14.1784C35.113 14.4865 35.4467 15.4111 35.6813 16.6576L42.9797 56.0675L42.9839 56.0742L54.1165 11.3182C54.3235 10.3413 53.8202 9.41043 53.0399 9.17064Z" fill="#EEBD31"/>
<path fill-rule="evenodd" clip-rule="evenodd" d="M73.9179 41.0319L48.7141 33.038L42.9847 56.0738L42.9805 56.0671L42.9821 56.0784L75.209 42.1879C75.978 41.7635 74.8048 41.3939 73.9179 41.0319Z" fill="#C9D3EB"/>
<path fill-rule="evenodd" clip-rule="evenodd" d="M69.3931 23.087H59.6152V41.6494H62.2477V33.1623H69.3931V30.7342H62.2477V25.5151H69.3931V23.087ZM73.9143 25.6974C73.9143 24.8973 73.2694 24.235 72.4903 24.235C71.7112 24.235 71.0669 24.8973 71.0669 25.6974C71.0669 26.4987 71.7112 27.161 72.4903 27.161C73.2694 27.161 73.9143 26.4987 73.9143 25.6974ZM73.6724 29.3422H71.2818V41.6494H73.6724V29.3422ZM78.3104 23.087H75.9193V41.6494H78.3104V23.087ZM90.6001 38.06C89.203 38.9986 87.8329 39.5507 86.3825 39.5507C84.0722 39.5507 82.7021 38.2821 82.3265 35.8246H90.8145C90.8145 31.2413 88.7731 29.0059 85.5765 29.0059C82.2452 29.0059 79.9354 31.5441 79.9354 35.2997C79.9354 38.724 82.0307 41.8986 85.7914 41.8986C87.8323 41.8986 89.1491 41.4302 90.5995 40.4339V38.06H90.6001ZM82.2339 34.1955C82.5567 32.2364 83.6585 31.1317 85.485 31.1317C87.1773 31.1317 88.2247 32.3183 88.3055 34.1955H82.2339ZM108.327 23.087H105.882L100.408 31.0371L94.9816 23.087H92.5102V41.6494H95.1427V27.6975H95.1971L100.193 34.9853H100.623L105.641 27.6975H105.694V41.6494H108.327V23.087ZM120.096 39.4411C119.559 39.8547 119.076 40.1022 118.833 40.1022C118.539 40.1022 118.378 39.9366 118.378 39.4676V33.0913C118.378 30.2744 116.443 29.0047 113.999 29.0047C112.253 29.0047 110.936 29.5568 109.997 30.6881V33.3665C111.152 31.9583 112.494 31.3238 113.81 31.3238C115.261 31.3238 115.988 31.9583 115.988 33.5038V34.1661L113.864 34.9403C111.931 35.6568 109.755 36.4038 109.755 38.8602C109.755 40.461 110.937 41.8981 112.71 41.8981C113.811 41.8981 114.913 41.4833 115.96 40.6272C116.176 41.5104 116.739 41.8981 117.787 41.8981C118.539 41.8981 118.996 41.6771 120.097 40.9312V39.4411H120.096ZM115.988 39.1382C115.342 39.7728 114.643 40.1582 113.891 40.1582C112.898 40.1582 112.173 39.4417 112.173 38.4194C112.173 36.9559 113.946 36.2394 115.988 35.5206V39.1382ZM123.482 23.087H121.092V41.6494H123.482V23.087ZM131.782 29.2533H128.935L123.589 35.3273L129.633 41.6494H132.857L126.625 35.3273L131.782 29.2533Z" fill="#236BB3"/>
<path fill-rule="evenodd" clip-rule="evenodd" d="M142.776 38.0433C141.366 38.9731 139.983 39.52 138.517 39.52C136.184 39.52 134.8 38.2633 134.421 35.8287H142.994C142.994 31.2882 140.931 29.0737 137.703 29.0737C134.339 29.0737 132.005 31.5882 132.005 35.3087C132.005 38.7011 134.122 41.846 137.92 41.846C139.983 41.846 141.311 41.382 142.776 40.395V38.0433H142.776ZM134.475 34.2148C134.8 32.274 135.912 31.1796 137.758 31.1796C139.466 31.1796 140.524 32.3552 140.606 34.2148H134.475ZM144.398 29.3188V41.5991H146.813V35.1709C146.813 33.0655 148.114 31.3968 149.771 31.3968C150.34 31.3968 151.289 31.8888 152.022 32.5998L153.296 30.4944C152.293 29.5377 151.371 29.0725 150.393 29.0725C149.255 29.0725 148.088 29.9743 146.866 32.134H146.813V29.3177H144.398V29.3188ZM151.05 41.8986C151.287 41.8993 151.522 41.8527 151.742 41.7615C151.961 41.6702 152.16 41.536 152.328 41.3668C152.495 41.1975 152.628 40.9965 152.718 40.7752C152.808 40.554 152.854 40.317 152.853 40.0778C152.853 39.5955 152.663 39.1328 152.325 38.7914C151.987 38.45 151.529 38.2578 151.05 38.257C150.571 38.257 150.112 38.4488 149.773 38.7903C149.434 39.1318 149.244 39.5949 149.244 40.0778C149.244 40.5607 149.434 41.0238 149.773 41.3653C150.112 41.7068 150.571 41.8986 151.05 41.8986ZM149.468 40.0778C149.468 39.8159 149.533 39.5581 149.655 39.3273C149.778 39.0965 149.956 38.8997 150.172 38.7545C150.388 38.6092 150.636 38.5199 150.895 38.4944C151.153 38.4689 151.414 38.5081 151.654 38.6085C151.894 38.7089 152.106 38.8673 152.27 39.0699C152.435 39.2724 152.548 39.5127 152.599 39.7696C152.649 40.0265 152.636 40.292 152.561 40.5426C152.485 40.7932 152.35 41.0213 152.166 41.2065C152.02 41.355 151.846 41.4728 151.655 41.553C151.463 41.6333 151.258 41.6744 151.05 41.674C150.63 41.6734 150.228 41.505 149.932 41.2057C149.635 40.9065 149.468 40.5009 149.468 40.0778Z" fill="#236BB3"/>
<path fill-rule="evenodd" clip-rule="evenodd" d="M151.973 41.0435L152.174 40.9474L151.775 40.0999C151.961 40.0248 152.107 39.814 152.107 39.5824C152.107 39.2513 151.847 39.0174 151.61 39.0174H150.741V41.0169H150.966V40.1361H151.542L151.973 41.0435ZM150.966 39.2411H151.611C151.726 39.2411 151.885 39.3705 151.885 39.5824C151.885 39.7677 151.741 39.9146 151.616 39.9146V39.9169H150.965V39.2411H150.966ZM162.044 5.8995V3.71239H162.747V3.42029H161.054V3.71239H161.756V5.8995H162.044ZM163.029 3.42029H163.542L164.135 5.46388L164.739 3.42029H165.219V5.8995H164.935V3.66719L164.247 5.8995H163.971L163.308 3.68188V5.8995H163.029V3.42029Z" fill="#236BB3"/>
</svg>

<svg xmlns="http://www.w3.org/2000/svg" width="155" height="57" fill="none" fill-rule="evenodd" xmlns:v="https://vecta.io/nano"><path d="M34.432 14.178c.682.308 1.016 1.233 1.25 2.479l7.3 39.421L7.924 35.343-.365 4.559C-.593 3.66.188 3.083.927 3.319L15.27 8.055c1.621.525.804-2.277 2.033-1.904l10.783 3.264c1.068.386.638 2.736 1.713 3.214l4.635 1.549z" fill="#236bb3"/><path d="M53.04 9.171L16.187-.372c-.713-.167-1.176.188-1.434 1.018l-1.72 6.672 2.235.738c1.621.525.804-2.277 2.033-1.904l10.783 3.264c1.068.386.638 2.736 1.712 3.214l4.635 1.549c.682.308 1.016 1.233 1.25 2.479l7.298 39.41.004.007 11.133-44.756c.207-.977-.296-1.908-1.077-2.148z" fill="#eebd31"/><path d="M73.918 41.032l-25.204-7.994-5.729 23.036-.004-.007.002.011 32.227-13.891c.769-.424-.404-.794-1.291-1.156z" fill="#c9d3eb"/><g fill="#236bb3"><path d="M69.393 23.087h-9.778v18.562h2.633v-8.487h7.145v-2.428h-7.145v-5.219h7.145v-2.428zm4.521 2.61c0-.8-.645-1.462-1.424-1.462s-1.423.662-1.423 1.462.644 1.464 1.423 1.464 1.424-.662 1.424-1.464zm-.242 3.645h-2.391v12.307h2.391V29.342zm4.638-6.255h-2.391v18.562h2.391V23.087zM90.6 38.06c-1.397.939-2.767 1.491-4.218 1.491-2.31 0-3.68-1.269-4.056-3.726h8.488c0-4.583-2.041-6.819-5.238-6.819-3.331 0-5.641 2.538-5.641 6.294 0 3.424 2.095 6.599 5.856 6.599 2.041 0 3.358-.468 4.808-1.465V38.06h.001zm-8.366-3.864c.323-1.959 1.425-3.064 3.251-3.064 1.692 0 2.74 1.187 2.82 3.064h-6.072zm26.093-11.109h-2.445l-5.474 7.95-5.426-7.95H92.51v18.562h2.633V27.698h.054l4.996 7.288h.43l5.018-7.288h.053V41.65h2.633V23.087zm11.769 16.354c-.537.414-1.02.661-1.263.661-.294 0-.455-.166-.455-.635v-6.376c0-2.817-1.935-4.087-4.379-4.087-1.746 0-3.063.552-4.002 1.683v2.678c1.155-1.408 2.497-2.043 3.813-2.043 1.451 0 2.178.635 2.178 2.18v.662l-2.124.774c-1.933.716-4.109 1.463-4.109 3.92 0 1.601 1.182 3.038 2.955 3.038 1.101 0 2.203-.415 3.25-1.271.216.883.779 1.271 1.827 1.271.752 0 1.209-.221 2.31-.967v-1.49h-.001zm-4.108-.303c-.646.635-1.345 1.02-2.097 1.02a1.66 1.66 0 0 1-1.718-1.739c0-1.464 1.773-2.18 3.815-2.899v3.618zm7.494-16.051h-2.39v18.562h2.39V23.087zm8.3 6.166h-2.847l-5.346 6.074 6.044 6.322h3.224l-6.232-6.322 5.157-6.074zm10.994 8.79c-1.41.93-2.793 1.477-4.259 1.477-2.333 0-3.717-1.257-4.096-3.691h8.573c0-4.54-2.063-6.755-5.291-6.755-3.364 0-5.698 2.515-5.698 6.235 0 3.392 2.117 6.537 5.915 6.537 2.063 0 3.391-.464 4.856-1.451v-2.352h0zm-8.301-3.829c.325-1.941 1.437-3.035 3.283-3.035 1.708 0 2.766 1.176 2.848 3.035h-6.131zm9.923-4.896v12.28h2.415V35.17c0-2.105 1.301-3.774 2.958-3.774.569 0 1.518.492 2.251 1.203l1.274-2.105c-1.003-.957-1.925-1.422-2.903-1.422-1.138 0-2.305.902-3.527 3.061h-.053v-2.816h-2.415v.001zm6.652 12.58a1.79 1.79 0 0 0 .692-.137 1.78 1.78 0 0 0 .586-.395 1.82 1.82 0 0 0 .39-.592 1.83 1.83 0 0 0-.393-1.984c-.338-.341-.796-.534-1.275-.534a1.8 1.8 0 0 0-1.277.533c-.339.341-.529.805-.529 1.288s.19.946.529 1.287a1.8 1.8 0 0 0 1.277.533zm-1.582-1.821a1.61 1.61 0 0 1 .187-.751 1.58 1.58 0 0 1 .517-.573 1.57 1.57 0 0 1 1.482-.146c.24.1.452.259.616.461a1.6 1.6 0 0 1 .329.7 1.62 1.62 0 0 1-.038.773 1.6 1.6 0 0 1-.395.664 1.57 1.57 0 0 1-.511.346 1.56 1.56 0 0 1-.605.121 1.58 1.58 0 0 1-1.118-.468 1.6 1.6 0 0 1-.464-1.128z"/><path d="M151.973 41.044l.201-.096-.399-.848c.186-.075.332-.286.332-.517 0-.331-.26-.565-.497-.565h-.869v1.999h.225v-.881h.576l.431.907zm-1.007-1.802h.645c.115 0 .274.129.274.341 0 .185-.144.332-.269.332v.002h-.651v-.676h.001zM162.044 5.9V3.712h.703V3.42h-1.693v.292h.702V5.9h.288zm.985-2.479h.513l.593 2.044.604-2.044h.48V5.9h-.284V3.667l-.688 2.232h-.276l-.663-2.218V5.9h-.279V3.42z"/></g></svg>
